!!!ONB: MCCC : ILB0167_01 : Extracted Monophonic Melody
!!!COM: Beethoven, Ludwig van
!!!OPR: Piano Sonata No.6
!!!OMV: 1
!!!SCT: Op.10 No.2
!!!ODT: 1796///
**kern
*thru
*staff1
*Ipiano
*>A
*clefG2
*k[b-]
*F:
*M2/4
*MM118
8a
=1
4cc
8r
24cc
24b
24dd
=2
4cc
8r
8a
=3
4b-
8r
24b-
24a
24cc
=4
4b-
8r
8b-
=5
16a
16cc
4ff
8ee
=6
8ff
4aa
8gg[
=7
8gg]
4aa
16bb-
16ccc
=8
8ccc
8bb-
4r
=9
8bb-
4ddd
16ccc
16bb-
=10
8bb-
8aa[
16.aa]
32gg
16.bb-
32gg
=11
8gg
8ff[
16.ff]
32ee
16.gg
32ee
=12
4ff
8r
8a
=13
4cc
8r
24cc
24b
24dd
=14
4cc
8r
8a
=15
4cc
8r
24cc
24b
24dd
=16
4cc
8r
24cc
24b
24a
=17
8ee
24cc
24b
24a
8ee
24cc
24b
24a
=18
4ee
8r
8g
=19
4e
4g
=20
4.cc
8ee
=21
8gg
4ccc
16eee
16ddd
=22
4ccc
8bb
8r
=23
4b
4dd
=24
4.ff
8bb
=25
8ddd
4fff
8eee
=26
4ddd
8ccc
8r
=27
4ee
4gg
=28
4.ccc
[8ccc#
=29
8ccc#]
4ddd
8ccc
=30
8ccc
8bb
8r
8ff#
=31
4gg
8r
8ccc
=32
16ccc
16bb
16aa
16gg
8r
8ff#
=33
4gg
8r
8ccc
=34
16ccc
16bb
16aa
16gg
8r
8ccc
=35
16ccc
16bb
16aa
16gg
8r
8ccc
=36
16ccc
16bb
16aa
16gg
16ff#
16gg
16aa
16gg
=37
16ff#
16gg
16aa
16gg
16ff#
16gg
16gg#
16aa
=38
8aa
8ff
8dd
8ee
=39
8aa
8ff
8dd
8ee
=40
8ff
8r
8dd
8r
=41
4ee
8r
32r
32gg
32ee-
32g
=42
32r
32aa-
32ff
32g
32r
32ff
32dd
32g
32r
32dd
32b
32g
32r
32ee-
32cc
32g
=43
32r
32aa-
32ff
32g
32r
32ff
32dd
32g
32r
32dd
32b
32g
32r
32ee-
32cc
32g
=44
8ff
8r
8dd
8r
=45
8cc
8r
4r
=46
8cc
8r
4r
=47
16r
16b
16r
16dd
16r
16cc
16r
16ee
=48
16r
16ff
16r
16bb
16r
16ccc
16r
16eee
=49
16r
16fff
16r
16bb
16r
16ccc
16r
16eee
=50
16r
16fff
16r
16bb
16r
16ccc
16r
16eee
=51
8r
24ddd
24ccc#
24eee
8ddd
24aa
24gg#
24bb
=52
8aa
24ff
24ee
24gg
8ff
24dd
24cc#
24ee
=53
8dd
4dd
16ee
16ff
=54
4gg[
24gg]
24aa
24gg
24ff
24ee
24dd
=55
4cc
8gg
8gg
=56
8ee
8r
8ccc
8ccc
=57
8aa
8r
8FF#
8FF#
=58
2GG
=59
4CC
32g
16.gg
32g
16.gg
=60
32e
16.ee
8r
32cc
16.ccc
32cc
16.ccc
=61
32a
16.aa
8r
8FF#
8FF#
=62
2GG
=63
4CC
8ff#
8ff#
=64
2gg
=65
8ccc
8r
8gg
8r
=66
*>A1
4cc
8r
*>A
*M2/4
8a
=67
4cc
8r
24cc
24b
24dd
=68
4cc
8r
8a
=69
4b-
8r
24b-
24a
24cc
=70
4b-
8r
8b-
=71
16a
16cc
4ff
8ee
=72
8ff
4aa
8gg[
=73
8gg]
4aa
16bb-
16ccc
=74
8ccc
8bb-
4r
=75
8bb-
4ddd
16ccc
16bb-
=76
8bb-
8aa[
16.aa]
32gg
16.bb-
32gg
=77
8gg
8ff[
16.ff]
32ee
16.gg
32ee
=78
4ff
8r
8a
=79
4cc
8r
24cc
24b
24dd
=80
4cc
8r
8a
=81
4cc
8r
24cc
24b
24dd
=82
4cc
8r
24cc
24b
24a
=83
8ee
24cc
24b
24a
8ee
24cc
24b
24a
=84
4ee
8r
8g
=85
4e
4g
=86
4.cc
8ee
=87
8gg
4ccc
16eee
16ddd
=88
4ccc
8bb
8r
=89
4b
4dd
=90
4.ff
8bb
=91
8ddd
4fff
8eee
=92
4ddd
8ccc
8r
=93
4ee
4gg
=94
4.ccc
[8ccc#
=95
8ccc#]
4ddd
8ccc
=96
8ccc
8bb
8r
8ff#
=97
4gg
8r
8ccc
=98
16ccc
16bb
16aa
16gg
8r
8ff#
=99
4gg
8r
8ccc
=100
16ccc
16bb
16aa
16gg
8r
8ccc
=101
16ccc
16bb
16aa
16gg
8r
8ccc
=102
16ccc
16bb
16aa
16gg
16ff#
16gg
16aa
16gg
=103
16ff#
16gg
16aa
16gg
16ff#
16gg
16gg#
16aa
=104
8aa
8ff
8dd
8ee
=105
8aa
8ff
8dd
8ee
=106
8ff
8r
8dd
8r
=107
4ee
8r
32r
32gg
32ee-
32g
=108
32r
32aa-
32ff
32g
32r
32ff
32dd
32g
32r
32dd
32b
32g
32r
32ee-
32cc
32g
=109
32r
32aa-
32ff
32g
32r
32ff
32dd
32g
32r
32dd
32b
32g
32r
32ee-
32cc
32g
=110
8ff
8r
8dd
8r
=111
8cc
8r
4r
=112
8cc
8r
4r
=113
16r
16b
16r
16dd
16r
16cc
16r
16ee
=114
16r
16ff
16r
16bb
16r
16ccc
16r
16eee
=115
16r
16fff
16r
16bb
16r
16ccc
16r
16eee
=116
16r
16fff
16r
16bb
16r
16ccc
16r
16eee
=117
8r
24ddd
24ccc#
24eee
8ddd
24aa
24gg#
24bb
=118
8aa
24ff
24ee
24gg
8ff
24dd
24cc#
24ee
=119
8dd
4dd
16ee
16ff
=120
4gg[
24gg]
24aa
24gg
24ff
24ee
24dd
=121
4cc
8gg
8gg
=122
8ee
8r
8ccc
8ccc
=123
8aa
8r
8FF#
8FF#
=124
2GG
=125
4CC
32g
16.gg
32g
16.gg
=126
32e
16.ee
8r
32cc
16.ccc
32cc
16.ccc
=127
32a
16.aa
8r
8FF#
8FF#
=128
2GG
=129
4CC
8ff#
8ff#
=130
2gg
=131
8ccc
8r
8gg
8r
=132
*>A2
4cc
4r
=133
*>B
8aa
8r
8ee
8r
=134
8a
8r
4r
=135
24r
24dd
24ee
24ff
24ee
24dd
24r
24aa
24bb
24ccc#
24bb
24aa
=136
16r
16ddd
16ccc#
16ddd
16eee
16ddd
16fff
16ddd
=137
24r
24ccc#
24ddd
24eee
24ddd
24ccc#
24r
24ccc#
24ddd
24eee
24ddd
24ccc#
=138
16r
16ccc#
16eee
16ddd
16ccc#
16bb-
16aa
16gg
=139
8aa
8r
8aa
8r
=140
8dd
8r
4r
=141
8aa
8r
8ee
8r
=142
8a
8r
4r
=143
24r
24f
24ff
24r
24g#
24gg#
24r
24a
24aa
24r
24d
24dd
=144
24r
24d
24dd
24r
24c#
24cc#
24r
24c#
24cc#
24r
24e
24ee
=145
24r
24e
24ee
24r
24d
24dd
24r
24d
24dd
24r
24f
24ff
=146
24r
24f
24ff
24r
24e
24ee
24r
24e
24ee
24r
24g
24gg
=147
24r
24g
24gg
24r
24f
24ff
24r
24g
24gg
24r
24f#
24ff#
=148
24r
24a
24aa
24r
24g
24gg
24r
24b-
24bb-
24r
24a
24aa
=149
24r
24cc
24ccc
24r
24b-
24bb-
24r
24dd
24ddd
24r
24g
24gg
=150
24r
24g
24gg
24r
24e
24ee
24r
24f#
24ff#
24r
24a
24aa
=151
24r
24a
24aa
24r
24f#
24ff#
24r
24g
24gg
24r
24b-
24bb-
=152
24r
24b-
24bb-
24r
24g#
24gg#
24r
24a
24aa
24r
24cc
24ccc
=153
24r
24cc
24ccc
24r
24b-
24bb-
24r
24cc
24ccc
24r
24b
24bb
=154
24r
24dd
24ddd
24r
24cc
24ccc
24r
24ee-
24eee-
24r
24dd
24ddd
=155
24r
24ff
24fff
24r
24ee-
24eee-
24r
24ff
24fff
24r
24ee
24eee
=156
24r
24ff
24fff
24r
24cc
24ccc
24r
24ff
24fff
24r
24ee-
24eee-
=157
24r
24ee-
24eee-
24r
24dd
24ddd
24r
24ff
24fff
24r
24b-
24bb-
=158
24r
24b-
24bb-
24r
24g#
24gg#
24r
24a
24aa
24r
24cc
24ccc
=159
24r
24cc
24ccc
24r
24a
24aa
24r
24b-
24bb-
24r
24dd
24ddd
=160
24r
24dd
24ddd
24r
24b
24bb
24r
24cc
24ccc
24r
24ee-
24eee-
=161
24r
24ddd
24eee-
24fff
24eee-
24ddd
24r
24ddd
24eee-
24fff
24eee-
24ddd
=162
24r
24ddd
24eee-
24fff
24eee-
24eee-
16eee
16fff
16ddd
16bb-
=163
24r
24aa
24bb-
24ccc
24bb-
24aa
24r
24aa
24bb-
24ccc
24bb-
24aa
=164
24r
24aa
24bb-
24ccc
24bb-
24aa
16eee-
16ccc
16aa
16ee-
=165
8bb-
8r
8ff
8r
=166
8dd-
8r
4r
=167
8ee-
8r
8cc
8r
=168
8a
8r
4r
=169
24r
24b-
24cc
24dd-
24cc
24b-
24r
24b-
24cc
24dd-
24cc
24b-
=170
24r
24b-
24cc
24dd-
24cc
24b-
16bb-
16ff
16ddd-
16ff
=171
24r
24ee
24ff
24gg
24ff
24ee
24r
24ee
24ff
24gg
24ff
24ee
=172
24r
24ee
24ff
24gg
24ff
24ee
16bb-
16gg
16ee
16b-
=173
24r
24a-
24b-
24cc
24b-
24a-
24r
24a-
24b-
24cc
24b-
24a-
=174
24r
24a-
24b-
24cc
24b-
24a-
16ff
16a-
16aa-
16a-
=175
24r
24ff
24gg
24aa-
24gg
24ff
24r
24ff
24gg
24aa-
24gg
24ff
=176
24r
24ff
24gg
24aa-
24gg
24ff
16aa-
16ff
16fff
16ff
=177
24r
24ff
24gg
24aa-
24gg
24ff
16ddd
16ff
16ddd
16ff
=178
24r
24ff
24gg
24aa-
24gg
24ff
16ddd
16ff
16ddd
16ff
=179
24r
24ff
24gg
24aa
24gg
24ff
16ddd
16ff
16ddd
16ff
=180
16ddd
16ff
16ddd
16ff
16ddd
16ff
16ddd
16ff
=181
16r
16ee
16ddd
16ee
16ddd
16ee
16ddd
16ee
=182
16r
16ee
16ccc#
16ee
16ccc#
16ee
16ccc#
16ee
=183
4r
8r
*k[f#c#]
8f#
=184
4a
8r
24aa
24gg#
24bb
=185
4aa
8r
8f#
=186
4g
8r
24aa
24gg#
24bb
=187
4aa
8r
8g
=188
16.f#
32a
4dd
8cc#
=189
8dd
4ff#
[8ee
=190
8ee]
4ff#
16gg
16aa
=191
8aa
8gg
4r
=192
8gg
4bb
16aa
16gg
=193
8gg
8ff#[
16.ff#]
32ee
16.gg
32ee
=194
8ee
8dd[
16.dd]
32cc#
16.ee
32cc#
=195
4dd
4r
=196
4r
8r
8a
=197
4b-
8r
24bb-
24aa
24ccc
=198
4bb-
8r
8b-
=199
4b-
8r
24bb-
24aa
24ccc
=200
4bb-
8r
24bb-
24aa
24ccc
=201
8bb-
24bb-
24aa
24ccc
8bb-
24bb-
24aa
24ccc
=202
4bb-
8r
*k[b-]
8b-
=203
16.a
32cc
4ff
8ee
=204
8ff
4aa
8gg[
=205
8gg]
4aa
16bb-
16ccc
=206
8ccc
8bb-
4r
=207
8bb-
4ddd
16ccc
16bb-
=208
8bb-
8aa[
16.aa]
32gg
16.bb-
32gg
=209
8gg
8ff[
16.ff]
32ee
16.gg
32ee
=210
4ff
8r
8f
=211
4a
4cc
=212
4.ff
8aa
=213
8ccc
4fff
8fff
=214
4fff
8eee
8r
=215
4e
4g
=216
4.b-
8ee
=217
8gg
4bb-
8aa
=218
4gg
8ff
8r
=219
16f
16a-
16c
16e
16f
16a-
16c
16e
=220
16f
16a-
16c
16e
16f
16a-
16c
16e
=221
16f
16a-
16c
16e
16f
16g
16a-
16f
=222
16g
16b-
16e-
16f#
16g
16b-
16e-
16f#
=223
16g
16b-
16e-
16f#
16g
16b-
16e-
16f#
=224
16g
16b-
16e-
16f#
16g
16b-
16e-
16f#
=225
16g
16b-
16e-
16f#
16g
16b-
16e-
16g
=226
16a-
16cc
16e-
16g
16a
16cc
16f
16a
=227
16b-
16ff
16f
16a
16b
16f
16ff
16b
=228
4cc
8r
8fff
=229
8fff
8eee
8r
8bb
=230
4ccc
8r
8fff
=231
16fff
16eee
16ddd
16ccc
8r
8bb
=232
4ccc
8r
8bb
=233
4ccc
8r
8bb
=234
4ccc
16b
16cc
16dd
16cc
=235
16b
16cc
16dd
16cc
16b
16cc
16cc#
16dd
=236
8dd
8b-
8g
8a
=237
8dd
8b-
8g
8a
=238
8b-
8r
8g
8r
=239
4a
8r
32r
32ccc
32aa-
32cc
=240
32r
32ddd-
32bb-
32cc
32r
32bb-
32gg
32cc
32r
32gg
32ee
32cc
32r
32aa-
32ff
32cc
=241
32r
32ddd-
32bb-
32cc
32r
32bb-
32gg
32cc
32r
32gg
32ee
32cc
32r
32aa-
32ff
32cc
=242
8bb-
8r
8gg
8r
=243
8ff
8r
4r
=244
8f
8r
4r
=245
16r
16e
16r
16g
16r
16f
16r
16a
=246
16r
16b-
16r
16ee
16r
16ff
16r
16aa
=247
16r
16bb-
16r
16ccc
16r
16ccc
16r
16fff
=248
16r
16eee
16r
16ccc
16r
16ccc
16r
16fff
=249
8r
24ddd
24ccc#
24eee
8ddd
24bb-
24aa
24ccc
=250
8bb-
24gg
24ff#
24aa
8gg
24dd
24cc#
24ee
=251
8dd
4g
16a
16b-
=252
4cc[
24cc]
24dd
24cc
24b-
24a
24g
=253
8f
4gg
16aa
16bb
=254
4ccc[
32ccc]
32ddd
32ccc
32bb
24ccc
24ddd
24eee
=255
8fff
8r
8ccc
8ccc
=256
8aa
8r
8fff
8fff
=257
8ddd
8r
8BB
8BB
=258
2C
=259
4FF
32cc
16.ccc
32cc
16.ccc
=260
32a
16.aa
8r
32ff
16.fff
32ff
16.fff
=261
32dd
16.ddd
8r
8BB
8BB
=262
2C
=263
4FF
8bb
8bb
=264
2ccc
=265
4fff
8b
8b
=266
2cc
=267
8ff
8r
8cc
8r
=268
4f
4r
=269
*>B
8aa
8r
8ee
8r
=270
8a
8r
4r
=271
24r
24dd
24ee
24ff
24ee
24dd
24r
24aa
24bb
24ccc#
24bb
24aa
=272
16r
16ddd
16ccc#
16ddd
16eee
16ddd
16fff
16ddd
=273
24r
24ccc#
24ddd
24eee
24ddd
24ccc#
24r
24ccc#
24ddd
24eee
24ddd
24ccc#
=274
16r
16ccc#
16eee
16ddd
16ccc#
16bb-
16aa
16gg
=275
8aa
8r
8aa
8r
=276
8dd
8r
4r
=277
8aa
8r
8ee
8r
=278
8a
8r
4r
=279
24r
24f
24ff
24r
24g#
24gg#
24r
24a
24aa
24r
24d
24dd
=280
24r
24d
24dd
24r
24c#
24cc#
24r
24c#
24cc#
24r
24e
24ee
=281
24r
24e
24ee
24r
24d
24dd
24r
24d
24dd
24r
24f
24ff
=282
24r
24f
24ff
24r
24e
24ee
24r
24e
24ee
24r
24g
24gg
=283
24r
24g
24gg
24r
24f
24ff
24r
24g
24gg
24r
24f#
24ff#
=284
24r
24a
24aa
24r
24g
24gg
24r
24b-
24bb-
24r
24a
24aa
=285
24r
24cc
24ccc
24r
24b-
24bb-
24r
24dd
24ddd
24r
24g
24gg
=286
24r
24g
24gg
24r
24e
24ee
24r
24f#
24ff#
24r
24a
24aa
=287
24r
24a
24aa
24r
24f#
24ff#
24r
24g
24gg
24r
24b-
24bb-
=288
24r
24b-
24bb-
24r
24g#
24gg#
24r
24a
24aa
24r
24cc
24ccc
=289
24r
24cc
24ccc
24r
24b-
24bb-
24r
24cc
24ccc
24r
24b
24bb
=290
24r
24dd
24ddd
24r
24cc
24ccc
24r
24ee-
24eee-
24r
24dd
24ddd
=291
24r
24ff
24fff
24r
24ee-
24eee-
24r
24ff
24fff
24r
24ee
24eee
=292
24r
24ff
24fff
24r
24cc
24ccc
24r
24ff
24fff
24r
24ee-
24eee-
=293
24r
24ee-
24eee-
24r
24dd
24ddd
24r
24ff
24fff
24r
24b-
24bb-
=294
24r
24b-
24bb-
24r
24g#
24gg#
24r
24a
24aa
24r
24cc
24ccc
=295
24r
24cc
24ccc
24r
24a
24aa
24r
24b-
24bb-
24r
24dd
24ddd
=296
24r
24dd
24ddd
24r
24b
24bb
24r
24cc
24ccc
24r
24ee-
24eee-
=297
24r
24ddd
24eee-
24fff
24eee-
24ddd
24r
24ddd
24eee-
24fff
24eee-
24ddd
=298
24r
24ddd
24eee-
24fff
24eee-
24eee-
16eee
16fff
16ddd
16bb-
=299
24r
24aa
24bb-
24ccc
24bb-
24aa
24r
24aa
24bb-
24ccc
24bb-
24aa
=300
24r
24aa
24bb-
24ccc
24bb-
24aa
16eee-
16ccc
16aa
16ee-
=301
8bb-
8r
8ff
8r
=302
8dd-
8r
4r
=303
8ee-
8r
8cc
8r
=304
8a
8r
4r
=305
24r
24b-
24cc
24dd-
24cc
24b-
24r
24b-
24cc
24dd-
24cc
24b-
=306
24r
24b-
24cc
24dd-
24cc
24b-
16bb-
16ff
16ddd-
16ff
=307
24r
24ee
24ff
24gg
24ff
24ee
24r
24ee
24ff
24gg
24ff
24ee
=308
24r
24ee
24ff
24gg
24ff
24ee
16bb-
16gg
16ee
16b-
=309
24r
24a-
24b-
24cc
24b-
24a-
24r
24a-
24b-
24cc
24b-
24a-
=310
24r
24a-
24b-
24cc
24b-
24a-
16ff
16a-
16aa-
16a-
=311
24r
24ff
24gg
24aa-
24gg
24ff
24r
24ff
24gg
24aa-
24gg
24ff
=312
24r
24ff
24gg
24aa-
24gg
24ff
16aa-
16ff
16fff
16ff
=313
24r
24ff
24gg
24aa-
24gg
24ff
16ddd
16ff
16ddd
16ff
=314
24r
24ff
24gg
24aa-
24gg
24ff
16ddd
16ff
16ddd
16ff
=315
24r
24ff
24gg
24aa
24gg
24ff
16ddd
16ff
16ddd
16ff
=316
16ddd
16ff
16ddd
16ff
16ddd
16ff
16ddd
16ff
=317
16r
16ee
16ddd
16ee
16ddd
16ee
16ddd
16ee
=318
16r
16ee
16ccc#
16ee
16ccc#
16ee
16ccc#
16ee
=319
4r
8r
*k[f#c#]
8f#
=320
4a
8r
24aa
24gg#
24bb
=321
4aa
8r
8f#
=322
4g
8r
24aa
24gg#
24bb
=323
4aa
8r
8g
=324
16.f#
32a
4dd
8cc#
=325
8dd
4ff#
[8ee
=326
8ee]
4ff#
16gg
16aa
=327
8aa
8gg
4r
=328
8gg
4bb
16aa
16gg
=329
8gg
8ff#[
16.ff#]
32ee
16.gg
32ee
=330
8ee
8dd[
16.dd]
32cc#
16.ee
32cc#
=331
4dd
4r
=332
4r
8r
8a
=333
4b-
8r
24bb-
24aa
24ccc
=334
4bb-
8r
8b-
=335
4b-
8r
24bb-
24aa
24ccc
=336
4bb-
8r
24bb-
24aa
24ccc
=337
8bb-
24bb-
24aa
24ccc
8bb-
24bb-
24aa
24ccc
=338
4bb-
8r
*k[b-]
8b-
=339
16.a
32cc
4ff
8ee
=340
8ff
4aa
8gg[
=341
8gg]
4aa
16bb-
16ccc
=342
8ccc
8bb-
4r
=343
8bb-
4ddd
16ccc
16bb-
=344
8bb-
8aa[
16.aa]
32gg
16.bb-
32gg
=345
8gg
8ff[
16.ff]
32ee
16.gg
32ee
=346
4ff
8r
8f
=347
4a
4cc
=348
4.ff
8aa
=349
8ccc
4fff
8fff
=350
4fff
8eee
8r
=351
4e
4g
=352
4.b-
8ee
=353
8gg
4bb-
8aa
=354
4gg
8ff
8r
=355
16f
16a-
16c
16e
16f
16a-
16c
16e
=356
16f
16a-
16c
16e
16f
16a-
16c
16e
=357
16f
16a-
16c
16e
16f
16g
16a-
16f
=358
16g
16b-
16e-
16f#
16g
16b-
16e-
16f#
=359
16g
16b-
16e-
16f#
16g
16b-
16e-
16f#
=360
16g
16b-
16e-
16f#
16g
16b-
16e-
16f#
=361
16g
16b-
16e-
16f#
16g
16b-
16e-
16g
=362
16a-
16cc
16e-
16g
16a
16cc
16f
16a
=363
16b-
16ff
16f
16a
16b
16f
16ff
16b
=364
4cc
8r
8fff
=365
8fff
8eee
8r
8bb
=366
4ccc
8r
8fff
=367
16fff
16eee
16ddd
16ccc
8r
8bb
=368
4ccc
8r
8bb
=369
4ccc
8r
8bb
=370
4ccc
16b
16cc
16dd
16cc
=371
16b
16cc
16dd
16cc
16b
16cc
16cc#
16dd
=372
8dd
8b-
8g
8a
=373
8dd
8b-
8g
8a
=374
8b-
8r
8g
8r
=375
4a
8r
32r
32ccc
32aa-
32cc
=376
32r
32ddd-
32bb-
32cc
32r
32bb-
32gg
32cc
32r
32gg
32ee
32cc
32r
32aa-
32ff
32cc
=377
32r
32ddd-
32bb-
32cc
32r
32bb-
32gg
32cc
32r
32gg
32ee
32cc
32r
32aa-
32ff
32cc
=378
8bb-
8r
8gg
8r
=379
8ff
8r
4r
=380
8f
8r
4r
=381
16r
16e
16r
16g
16r
16f
16r
16a
=382
16r
16b-
16r
16ee
16r
16ff
16r
16aa
=383
16r
16bb-
16r
16ccc
16r
16ccc
16r
16fff
=384
16r
16eee
16r
16ccc
16r
16ccc
16r
16fff
=385
8r
24ddd
24ccc#
24eee
8ddd
24bb-
24aa
24ccc
=386
8bb-
24gg
24ff#
24aa
8gg
24dd
24cc#
24ee
=387
8dd
4g
16a
16b-
=388
4cc[
24cc]
24dd
24cc
24b-
24a
24g
=389
8f
4gg
16aa
16bb
=390
4ccc[
32ccc]
32ddd
32ccc
32bb
24ccc
24ddd
24eee
=391
8fff
8r
8ccc
8ccc
=392
8aa
8r
8fff
8fff
=393
8ddd
8r
8BB
8BB
=394
2C
=395
4FF
32cc
16.ccc
32cc
16.ccc
=396
32a
16.aa
8r
32ff
16.fff
32ff
16.fff
=397
32dd
16.ddd
8r
8BB
8BB
=398
2C
=399
4FF
8bb
8bb
=400
2ccc
=401
4fff
8b
8b
=402
2cc
=403
8ff
8r
8cc
8r
=404
4f
4r
==
*-
